!!!COM:	Bach, Johann Sebastian
!!!OMV:	Vom Himmel hoch, da komm ich her
!!!OTL:	Vom Himmel hoch, da komm ich her
**kern	**fb	**kern	**kern	**kern	**kern	**kern	**kern	**kern	**kern
*part9	*part9	*part8	*part7	*part6	*part5	*part4	*part3	*part2	*part1
*staff9	*	*staff8	*staff7	*staff6	*staff5	*staff4	*staff3	*staff2	*staff1
*I"Continuo	*	*I"Voice	*I"Voice	*I"Voice	*I"Voice	*I"Timpani	*I"D Trumpet	*I"D Trumpet	*I"D Trumpet
*I'Cont.	*	*I'V	*I'V	*I'V	*I'V	*I'Timp.	*I'D Tpt.	*I'D Tpt.	*I'D Tpt.
*clefF4	*	*clefF4	*clefGv2	*clefG2	*clefG2	*clefF4	*clefG2	*clefG2	*clefG2
*Trd0c0	*	*	*	*	*	*	*	*	*
*k[f#c#]	*	*k[f#c#]	*k[f#c#]	*k[f#c#]	*k[f#c#]	*k[f#c#]	*k[f#c#]	*k[f#c#]	*k[f#c#]
*M4/4	*	*M4/4	*M4/4	*M4/4	*M4/4	*M4/4	*M4/4	*M4/4	*M4/4
4D	.	4D	4f#	4a	4dd	4r	4r	4r	4r
=2	=2	=2	=2	=2	=2	=2	=2	=2	=2
4.A	.	4.A	4e	8aL	4cc#	1r	1r	1r	1r
.	.	.	.	8g#XJ	.	.	.	.	.
.	.	.	4d	4f#	4b	.	.	.	.
8G#X	7 5	8G#X	.	.	.	.	.	.	.
8AL	.	8AL	4c#	4e	4cc#	.	.	.	.
8GnJ	.	8GnJ	.	.	.	.	.	.	.
4F#	6 8	4F#	8dL	8f#L	4a	.	.	.	.
.	5 7	.	8c#J	8eJ	.	.	.	.	.
=3	=3	=3	=3	=3	=3	=3	=3	=3	=3
8GL	.	8GL	8BL	4d	4b	2r	2r	2r	2r
8F#J	.	8F#J	8AJ	.	.	.	.	.	.
4E	6	4E	4G	4e	4cc#	.	.	.	.
8DL	.	4D	4A	4f#	4dd	4D	4a	8r	8r
8dJ	.	.	.	.	.	.	.	16ddLL	16ff#LL
.	.	.	.	.	.	.	.	16eeJJ	16ggJJ
16r	.	4r	4r	4r	4r	8r	8r	8ddL	8ff#L
16DLL	.	.	.	.	.	.	.	.	.
16F#	6	.	.	.	.	16DLL	16aLL	8ddJ	8ff#J
16DJJ	.	.	.	.	.	16DJJ	16f#JJ	.	.
=4	=4	=4	=4	=4	=4	=4	=4	=4	=4
8BBL	.	1r	1r	1r	1r	4D	8dL	8r	8r
8BJ	.	.	.	.	.	.	8f#J	16ddLL	16ff#LL
.	.	.	.	.	.	.	.	16eeJJ	16ggJJ
16r	.	.	.	.	.	8r	8r	8ddL	8ff#L
16BBLL	.	.	.	.	.	.	.	.	.
16D	6	.	.	.	.	16DLL	16f#LL	8ddJ	8ff#J
16BBJJ	.	.	.	.	.	16DJJ	16aJJ	.	.
8GGL	6 5	.	.	.	.	8DL	8ddL	8r	8r
8G	.	.	.	.	.	8D	8dd	8ggL	8bbL
8A	6 4	.	.	.	.	8AA	8dd	8ff#	8aa
8AAJ	5 3	.	.	.	.	8AAJ	8aJ	8eeJ	8ggJ
=5	=5	=5	=5	=5	=5	=5	=5	=5	=5
!!pagebreak:original
8DL	.	4r	4r	4r	4r	4D	4a	16ddLL	16ff#LL
.	.	.	.	.	.	.	.	16ff#	16aa
8DDJ	.	.	.	.	.	.	.	16gg	16bb
.	.	.	.	.	.	.	.	16eeJJ	16ccc#JJ
8DL	.	8DL	4A	8f#L	4dd	4r	4r	8ff#	8ddd
8EJ	.	8EJ	.	8gJ	.	.	.	8r	8r
8F#L	.	4F#	4d	8aL	4dd	2r	2r	2r	2r
8FF#J	.	.	.	8gJ	.	.	.	.	.
8F#L	6	8F#L	4d	4f#	4a	.	.	.	.
8GJ	.	8GJ	.	.	.	.	.	.	.
=6	=6	=6	=6	=6	=6	=6	=6	=6	=6
8AL	.	4A	4c#	4e	4a	1r	1r	1r	1r
8AA	.	.	.	.	.	.	.	.	.
8A	6 4 nr3	8AL	8cnL	4d	8f#L	.	.	.	.
8GJ	3	8GJ	8BJ	.	8gJ	.	.	.	.
8F#L	6	8F#L	4A	4d	4a	.	.	.	.
8E	.	8E	.	.	.	.	.	.	.
8D	5 4 2	8D	4A	4e	4g	.	.	.	.
8C#J	.	8C#J	.	.	.	.	.	.	.
=7	=7	=7	=7	=7	=7	=7	=7	=7	=7
8DL	.	4D	4A	4d	4f#	4D	4a	8r	8r
8dJ	.	.	.	.	.	.	.	16f#LL	16ddLL
.	.	.	.	.	.	.	.	16aJJ	16eeJJ
16r	.	4r	4r	4r	4r	8r	8r	8f#L	8ddL
16DLL	.	.	.	.	.	.	.	.	.
16F#	6	.	.	.	.	16DLL	16aLL	8f#J	8ddJ
16DJJ	.	.	.	.	.	16DJJ	16f#JJ	.	.
8BBL	.	4r	4r	4r	4r	4D	8dL	8r	8r
8BJ	.	.	.	.	.	.	8f#J	16f#LL	16ddLL
.	.	.	.	.	.	.	.	16aJJ	16eeJJ
16r	.	4r	4r	4r	4r	8r	8r	8f#L	8ddL
16BBLL	.	.	.	.	.	.	.	.	.
16D	6	.	.	.	.	16DLL	16f#LL	8f#J	8ddJ
16BBJJ	.	.	.	.	.	16DJJ	16aJJ	.	.
=8	=8	=8	=8	=8	=8	=8	=8	=8	=8
!!pagebreak:original
8GGL	6 5	2.r	2.r	2.r	2r	8DL	8ddL	8r	8r
8G	.	.	.	.	.	8D	16ddL	8eeL	8ggL
.	.	.	.	.	.	.	16eeJJ	.	.
8A	6 4	.	.	.	.	8AA	16ff#LL	8dd	8ff#
.	.	.	.	.	.	.	16ggJ	.	.
8AAJ	5 3	.	.	.	.	8AAJ	8aaJ	8aJ	8eeJ
8DL	.	.	.	.	4r	4D	4a	16f#LL	16ddLL
.	.	.	.	.	.	.	.	16d	16a
8DDJ	.	.	.	.	.	.	.	16f#	16dd
.	.	.	.	.	.	.	.	16aJJ	16eeJJ
8DL	.	4D	4A	8dL	4f#	4r	4r	8dd	8ff#
8C#J	.	.	.	8eJ	.	.	.	8r	8r
=9	=9	=9	=9	=9	=9	=9	=9	=9	=9
8D#XL	6 5	4D#X	4A	4f#	4b	1r	1r	2r	1r
8BBJ	.	.	.	.	.	.	.	.	.
8EL	#	8EL	4G#X	4e	4b	.	.	.	.
8DnJ	.	8DnJ	.	.	.	.	.	.	.
8C#L	6	8C#L	8AL	8eL	8aL	.	.	2r	.
8BB	.	8BBJ	8d	8g#XJ	8bJ	.	.	.	.
8AA	.	4AA	8c#	4a	4cc#	.	.	.	.
8GG#XJ	.	.	8BJ	.	.	.	.	.	.
=10	=10	=10	=10	=10	=10	=10	=10	=10	=10
8FF#L	6	8F#L	8AL	4a	8ddL	2r	2r	2r	2r
8EE	6 4	8E	8c#	.	8cc#J	.	.	.	.
8DD	6 5	8D	8f#	8aL	4b	.	.	.	.
8EEJ	#	8EJ	8eJ	8g#XJ	.	.	.	.	.
8AAL	.	4AA	4c#	4e	4a	4AA	4a	8r	8r
8AJ	.	.	.	.	.	.	.	16aaLL	16ccc#LL
.	.	.	.	.	.	.	.	16bbJJ	16dddJJ
16r	.	4r	4r	4r	4r	8r	8r	8aaL	8ccc#L
16AALL	.	.	.	.	.	.	.	.	.
16C#	6	.	.	.	.	16AALL	16aLL	8aaJ	8ccc#J
16AAJJ	.	.	.	.	.	16AAJJ	16eeJJ	.	.
=11	=11	=11	=11	=11	=11	=11	=11	=11	=11
!!pagebreak:original
8FF#L	5	1r	1r	1r	1r	4AA	8ff#L	8r	8r
8F#J	.	.	.	.	.	.	8aJ	16aaLL	16ccc#LL
.	.	.	.	.	.	.	.	16bbJJ	16dddJJ
16r	.	.	.	.	.	8r	8r	8aaL	8ccc#L
16FF#LL	.	.	.	.	.	.	.	.	.
16AA	6	.	.	.	.	16AALL	16f#LL	8aaJ	8ccc#J
16FF#JJ	.	.	.	.	.	16AAJJ	16aJJ	.	.
8DDL	6 5	.	.	.	.	8D	8ff#L	8r	8r
8D	.	.	.	.	.	8r	8ff#	8bbL	8dddL
8E	6 4	.	.	.	.	4r	8ee	8aa	8ccc#
8EEJ	5 3	.	.	.	.	.	8eeJ	8gg#XJ	8bbJ
=12	=12	=12	=12	=12	=12	=12	=12	=12	=12
8AAL	.	4r	4r	4r	4r	4AA	8ee	16aaLL	16ccc#LL
.	.	.	.	.	.	.	.	16gg	16bb
[8AJ	.	.	.	.	.	.	8r	16ff#	16aa
.	.	.	.	.	.	.	.	16eeJJ	16ggJJ
8AL]	6 4 2	8AL	8dL	8f#L	4dd	4r	4r	8dd	8ff#
8G#XJ	6 5	8EJ	8BJ	8eJ	.	.	.	8r	8r
8AL	9	8AL	8BL	8eL	4cc#	2r	2r	2r	2r
8F#J	5	8F#J	8AJ	8f#J	.	.	.	.	.
8DL	6 5	8DL	8AL	8f#L	4b	.	.	.	.
[8GnJ	6	8GJ	8GJ	8eJ	.	.	.	.	.
=13	=13	=13	=13	=13	=13	=13	=13	=13	=13
8GL]	6 4 2	8GL	4A	8c#L	4a	1r	1r	1r	1r
8F#J	6	8F#J	.	8dJ	.	.	.	.	.
8GL	.	8GL	8GL	8BL	8bL	.	.	.	.
8AJ	6	8AJ	8F#J	8c#J	8aJ	.	.	.	.
8BL	6	8BL	4E	4.d	8gL	.	.	.	.
8GJ	7 5	8GJ	.	.	8f#J	.	.	.	.
8AL	4	8AL	8AL	.	4e	.	.	.	.
8AAJ	3	8AAJ	8GJ	8c#	.	.	.	.	.
=14	=14	=14	=14	=14	=14	=14	=14	=14	=14
!!pagebreak:original
8DL	.	4D	4F#	4A	4d	4D	4a	8r	8r
8dJ	.	.	.	.	.	.	.	16ddLL	16ff#LL
.	.	.	.	.	.	.	.	16eeJJ	16ggJJ
16r	.	4r	4r	4r	4r	8r	8r	8ddL	8ff#L
16DLL	.	.	.	.	.	.	.	.	.
16F#	6	.	.	.	.	16DLL	16aLL	8ddJ	8ff#J
16DJJ	.	.	.	.	.	16DJJ	16f#JJ	.	.
8BBL	.	4r	4r	4r	4r	4D	8dL	8r	8r
8BJ	.	.	.	.	.	.	8f#J	16ddLL	16ff#LL
.	.	.	.	.	.	.	.	16eeJJ	16ggJJ
16r	.	4r	4r	4r	4r	8r	8r	8ddL	8ff#L
16BBLL	.	.	.	.	.	.	.	.	.
16D	6	.	.	.	.	16DLL	16f#LL	8ddJ	8ff#J
16BBJJ	.	.	.	.	.	16DJJ	16aJJ	.	.
=15	=15	=15	=15	=15	=15	=15	=15	=15	=15
8GGL	6 5	1r	1r	1r	1r	8DL	8ddL	8r	8r
8G	.	.	.	.	.	8D	8dd	8ggL	8bbL
8A	6 4	.	.	.	.	8AA	8dd	8ff#	8aa
8AAJ	5 3	.	.	.	.	8AAJ	8aJ	8eeJ	8ggJ
4BB	5	.	.	.	.	4D	4d	16ddLL	16ff#LL
.	.	.	.	.	.	.	.	16ff#	16aa
.	.	.	.	.	.	.	.	16gg	16bb
.	.	.	.	.	.	.	.	16eeJJ	16ccc#JJ
8r	.	.	.	.	.	8r	8r	8ff#L	8dddL
8B	6	.	.	.	.	8D	16dLL	8ddJ	8ggJ
.	.	.	.	.	.	.	16dJJ	.	.
=16	=16	=16	=16	=16	=16	=16	=16	=16	=16
8AL	6 4	2r	2r	2r	2r	4AA	8dL	4dd	4ff#
8G	.	.	.	.	.	.	16f#L	.	.
.	.	.	.	.	.	.	16dJJ	.	.
8A	5 3	.	.	.	.	16AALL	8aL	16aLL	4ee
.	.	.	.	.	.	16AA	.	16f#J	.
8AAJ	.	.	.	.	.	16AA	8aJ	8aJ	.
.	.	.	.	.	.	16AAJJ	.	.	.
4DD;	.	4r	4r	4r	4r	4D;	4a;	4f#;	4dd;
==	==	==	==	==	==	==	==	==	==
*-	*-	*-	*-	*-	*-	*-	*-	*-	*-
!!!system-decoration: s1,s2,s3,s4,s5,s6,s7,s8,s9
